packages/kaspersky-hexa-ui-icons/src/iconsSVGs/48/ServerWarning.svg

<svg xmlns="http://www.w3.org/2000/svg" width="48" height="48" fill="none" viewBox="0 0 48 48"><path fill="#000" fill-rule="evenodd" d="M4 2c-1.1046 0-2 .8954-2 2v9c0 1.1046.8954 2 2 2h15c.5523 0 1 .4477 1 1s-.4477 1-1 1H4c-1.1046 0-2 .8954-2 2v9c0 1.1046.8954 2 2 2h13c.5523 0 1 .4477 1 1s-.4477 1-1 1H4c-2.2091 0-4-1.7909-4-4v-9c0-1.1947.5238-2.2671 1.3542-3C.5238 15.2671 0 14.1947 0 13V4c0-2.2091 1.7909-4 4-4h28c2.2091 0 4 1.7909 4 4v3c0 .5523-.4477 1-1 1s-1-.4477-1-1V4c0-1.1046-.8954-2-2-2zm1 6c0-.5523.4477-1 1-1h1c.5523 0 1 .4477 1 1v1c0 .5523-.4477 1-1 1H6c-.5523 0-1-.4477-1-1zm6-1c-.5523 0-1 .4477-1 1v1c0 .5523.4477 1 1 1h1c.5523 0 1-.4477 1-1V8c0-.5523-.4477-1-1-1zm4 1c0-.5523.4477-1 1-1h1c.5523 0 1 .4477 1 1v1c0 .5523-.4477 1-1 1h-1c-.5523 0-1-.4477-1-1zm20 29.9648c7.2653-.5127 13-6.569 13-13.9648 0-7.732-6.268-14-14-14s-14 6.268-14 14c0 7.3958 5.7347 13.4521 13 13.9648V47c0 .5523.4477 1 1 1s1-.4477 1-1zM22 24c0-6.6274 5.3726-12 12-12s12 5.3726 12 12-5.3726 12-12 12-12-5.3726-12-12m9.4071-8.4498c1.1442-2.0669 4.0416-2.0669 5.1858 0l6.0132 10.862C43.7041 28.3955 42.3725 31 40.0132 31H27.9868c-2.3593 0-3.6909-2.6045-2.5929-4.5878zm9.4493 11.8307-6.0132-10.8621c-.383-.6917-1.3034-.6917-1.6864 0l-6.0132 10.8621c-.4292.7753.1482 1.6191.8432 1.6191h12.0264c.695 0 1.2724-.8438.8432-1.6191M35 20c0-.5523-.4477-1-1-1s-1 .4477-1 1v3c0 .5523.4477 1 1 1s1-.4477 1-1zM6 22c-.5523 0-1 .4477-1 1v1c0 .5523.4477 1 1 1h1c.5523 0 1-.4477 1-1v-1c0-.5523-.4477-1-1-1zm4 1c0-.5523.4477-1 1-1h1c.5523 0 1 .4477 1 1v1c0 .5523-.4477 1-1 1h-1c-.5523 0-1-.4477-1-1zm6-1c-.5523 0-1 .4477-1 1v1c0 .5523.4477 1 1 1h1c.5523 0 1-.4477 1-1v-1c0-.5523-.4477-1-1-1zm19 4c0 .5523-.4477 1-1 1s-1-.4477-1-1 .4477-1 1-1 1 .4477 1 1"/></svg>

<svg width="48" height="48" viewBox="0 0 48 48" fill="none" xmlns="http://www.w3.org/2000/svg">
<g clip-path="url(#clip0_8173_2803)">
<path d="M4 2C2.89543 2 2 2.89543 2 4V13C2 14.1046 2.89543 15 4 15H19C19.5523 15 20 15.4477 20 16C20 16.5523 19.5523 17 19 17H4C2.89543 17 2 17.8954 2 19V28C2 29.1046 2.89543 30 4 30H17C17.5523 30 18 30.4477 18 31C18 31.5523 17.5523 32 17 32H4C1.79086 32 0 30.2091 0 28V19C0 17.8053 0.523756 16.7329 1.35418 16C0.523756 15.2671 0 14.1947 0 13V4C0 1.79086 1.79086 0 4 0H32C34.2091 0 36 1.79086 36 4V7C36 7.55228 35.5523 8 35 8C34.4477 8 34 7.55228 34 7V4C34 2.89543 33.1046 2 32 2H4Z" fill="black"/>
<path d="M35 20C35 19.4477 34.5523 19 34 19C33.4477 19 33 19.4477 33 20V23C33 23.5523 33.4477 24 34 24C34.5523 24 35 23.5523 35 23V20Z" fill="black"/>
<path d="M35 26C35 26.5523 34.5523 27 34 27C33.4477 27 33 26.5523 33 26C33 25.4477 33.4477 25 34 25C34.5523 25 35 25.4477 35 26Z" fill="black"/>
<path fill-rule="evenodd" clip-rule="evenodd" d="M36.5929 15.5501C35.4487 13.4833 32.5513 13.4833 31.4071 15.5502L25.3939 26.4122C24.2959 28.3955 25.6275 31 27.9868 31H40.0132C42.3725 31 43.7041 28.3955 42.6061 26.4122L36.5929 15.5501ZM33.1568 16.5188C33.5398 15.8271 34.4602 15.8271 34.8432 16.5188L40.8564 27.3809C41.2856 28.1562 40.7082 29 40.0132 29H27.9868C27.2918 29 26.7144 28.1562 27.1436 27.3809L33.1568 16.5188Z" fill="black"/>
<path fill-rule="evenodd" clip-rule="evenodd" d="M48 24C48 31.3958 42.2653 37.4521 35 37.9648V47C35 47.5523 34.5523 48 34 48C33.4477 48 33 47.5523 33 47V37.9648C25.7347 37.4521 20 31.3958 20 24C20 16.268 26.268 10 34 10C41.732 10 48 16.268 48 24ZM34 12C27.3726 12 22 17.3726 22 24C22 30.6274 27.3726 36 34 36C40.6274 36 46 30.6274 46 24C46 17.3726 40.6274 12 34 12Z" fill="black"/>
<path d="M5 8C5 7.44772 5.44772 7 6 7H7C7.55228 7 8 7.44772 8 8V9C8 9.55229 7.55228 10 7 10H6C5.44772 10 5 9.55228 5 9V8Z" fill="black"/>
<path d="M11 7C10.4477 7 10 7.44772 10 8V9C10 9.55228 10.4477 10 11 10H12C12.5523 10 13 9.55229 13 9V8C13 7.44772 12.5523 7 12 7H11Z" fill="black"/>
<path d="M15 8C15 7.44772 15.4477 7 16 7H17C17.5523 7 18 7.44772 18 8V9C18 9.55229 17.5523 10 17 10H16C15.4477 10 15 9.55228 15 9V8Z" fill="black"/>
<path d="M16 22C15.4477 22 15 22.4477 15 23V24C15 24.5523 15.4477 25 16 25H17C17.5523 25 18 24.5523 18 24V23C18 22.4477 17.5523 22 17 22H16Z" fill="black"/>
<path d="M10 23C10 22.4477 10.4477 22 11 22H12C12.5523 22 13 22.4477 13 23V24C13 24.5523 12.5523 25 12 25H11C10.4477 25 10 24.5523 10 24V23Z" fill="black"/>
<path d="M6 22C5.44772 22 5 22.4477 5 23V24C5 24.5523 5.44772 25 6 25H7C7.55228 25 8 24.5523 8 24V23C8 22.4477 7.55228 22 7 22H6Z" fill="black"/>
</g>
<defs>
<clipPath id="clip0_8173_2803">
<rect width="48" height="48" fill="white"/>
</clipPath>
</defs>
</svg>
